X: 30344
T: Old Penny, The
R: hornpipe
M: 4/4
K: Gmajor
|:g>fa>g G>Bd>g|e>dc>A E>Gc>e|d>BG>B e>cA>F|
(3GBA (3GFE (3DED (3CB,A,|G,>G (3GGG D>G,B,>D|A>a (3aaa f>de>f|
g>dB>G e>cA>F|1 (3GBd (3gdB (3cAF G2:|2 (3GBd (3gdB (3cAF G2||
G,>B,D>G B>dg>d|f>ec>A F>Ac>d|E>FA>d c>dB>c|
(3GBA (3GFE (3DED (3CB,A,|G,>B,D>G B>dg>d|
f>ec>A E>Ac>e|(3GBB (3Acc (3Bdd (3cee|(3dBG (3cAF (3GDB, G,2:|

